src/icons/solid/file-spreadsheet.svg

<svg xmlns="http://www.w3.org/2000/svg" viewBox="0 0 384 512"><!--! Font Awesome Pro 6.5.2 by @fontawesome - https://fontawesome.com License - https://fontawesome.com/license (Commercial License) Copyright 2024 Fonticons, Inc. --><path d="M64 0C28.7 0 0 28.7 0 64V448c0 35.3 28.7 64 64 64H320c35.3 0 64-28.7 64-64V160H256c-17.7 0-32-14.3-32-32V0H64zM256 0V128H384L256 0zM88 224H296c17.7 0 32 14.3 32 32v16 80 64c0 17.7-14.3 32-32 32H232 152 88c-17.7 0-32-14.3-32-32V352 272 256c0-17.7 14.3-32 32-32zm0 112h48V288H88v48zm80 0h48V288H168v48zm80 0h48V288H248v48zm0 32v48h48V368H248zm-32 0H168v48h48V368zm-80 0H88v48h48V368z"/></svg>

<svg xmlns="http://www.w3.org/2000/svg" viewBox="0 0 384 512"><!--! Font Awesome Pro 6.7.2 by @fontawesome - https://fontawesome.com License - https://fontawesome.com/license (Commercial License) Copyright 2024 Fonticons, Inc. --><path d="M64 0C28.7 0 0 28.7 0 64L0 448c0 35.3 28.7 64 64 64l256 0c35.3 0 64-28.7 64-64l0-288-128 0c-17.7 0-32-14.3-32-32L224 0 64 0zM256 0l0 128 128 0L256 0zM88 224l208 0c17.7 0 32 14.3 32 32l0 16 0 80 0 64c0 17.7-14.3 32-32 32l-64 0-80 0-64 0c-17.7 0-32-14.3-32-32l0-64 0-80 0-16c0-17.7 14.3-32 32-32zm0 112l48 0 0-48-48 0 0 48zm80 0l48 0 0-48-48 0 0 48zm80 0l48 0 0-48-48 0 0 48zm0 32l0 48 48 0 0-48-48 0zm-32 0l-48 0 0 48 48 0 0-48zm-80 0l-48 0 0 48 48 0 0-48z"/></svg>
